app/dist/common/images/crawford-and-company.svg

<svg height="18" viewBox="0 0 18 18" width="18" xmlns="http://www.w3.org/2000/svg"><path d="m0 0h18v18h-18z" fill="#193f7d"/><path d="m13 8h-2v-1.33c-.04-.73-.6-.7-.82-.67h-2.43c-.5 0-.75 1-.75 1.57v2.63c0 1.43.54 1.85.75 1.86h2.55c.32 0 .67-.42.7-.61v-1.45h2c0 3-.89 4-1.93 4h-3.77c-2.28 0-2.3-3.12-2.3-4.9 0-3.4.39-5.1 2.3-5.1h3.57c2.01 0 2.13 1.83 2.13 4z" fill="#fff"/></svg>

<!-- by TradingView --><svg width="18" height="18" viewBox="0 0 18 18" xmlns="http://www.w3.org/2000/svg"><path fill="#193F7D" d="M0 0h18v18H0z"/><path d="M13 8h-2V6.67c-.04-.73-.6-.7-.82-.67H7.75C7.25 6 7 7 7 7.57v2.63c0 1.43.54 1.85.75 1.86h2.55c.32 0 .67-.42.7-.61V10h2c0 3-.89 4-1.93 4H7.3C5.02 14 5 10.88 5 9.1 5 5.7 5.39 4 7.3 4h3.57C12.88 4 13 5.83 13 8Z" fill="#fff"/></svg>
